X:1
T:Title
%%score { ( 1 3 ) | 2 }
L:1/8
Q:1/4=104
M:4/4
K:Db
V:1 treble nm="Grand Piano"
V:3 treble 
V:2 bass 
V:1
 [DF]3 [EG] [FA]2 F2 | B2 B2 [FA]4 | F3 B A2 F2 | [CE]6 z2 | [DF]3 [DF] [FA]2 F2 | B2 B2 d4 | %6
w: J.~B.~Mackay * * *||||||
 A2 A>F[K:bass] [A,CE]2 [G,CE]>[A,CF] | [F,D]6 z2 | [FA]6 z2 | [FA]6 z2 | %10
w: ||||
 [DGB]2 [DGB]>[DAc] [DBd]2 [DGB]2 | [FA]6 z2 | [Fd]2 [Fd]>[Fd] [Fd]2 [FA]2 | B2 B2 d4 | %14
w: ||||
 A2 A>F[K:bass] [A,CE]2 [G,CE]>[A,CF] | [F,D]6 z2 |] %16
w: ||
V:2
 [D,A,]3 [D,A,] [D,D]2 [D,A,D]2 | [G,D]2 [G,DG]2 [D,D]4 | [D,A,D]3 [D,G,D] [D,F,D]2 [D,A,D]2 | %3
 [A,,A,]6 z2 | [D,A,]3 [D,A,] [D,D]2 [D,A,D]2 | [G,D]2[K:treble] [G,DG]2 [G,B,G]4 | %6
 [A,DF]2 [A,DF]>[A,D][K:bass] A,,2 A,,>A,, | D,6 z2 | D,2 D,>D, D,2 D>E | D,2 D,>D, D,2 z2 | %10
 G,2 G,>G, G,2 G,2 | D,2 D,>D, D,2 z2 | [D,A,]2 [D,A,]>[D,A,] [D,A,]2 [D,D]2 | %13
 [G,DG]2 [G,DG]2 [G,B,G]4 | [A,DF]2 [A,DF]>[K:bass][A,D] A,,2 A,,>A,, | D,6 z2 |] %16
V:3
 x8 | x8 | x8 | x8 | x8 | x8 | x4[K:bass] x4 | x8 | D2 D>D D2 F>G | D2 D>D D2 z2 | x8 | %11
 D2 D>D D2 z2 | x8 | x8 | x4[K:bass] x4 | x8 |] %16

